svg/fluentui-system-icons/ic_fluent_calendar_settings_48_regular.svg

<svg width="48" height="48" viewBox="0 0 48 48" fill="none" xmlns="http://www.w3.org/2000/svg">
<path d="M6 12.25C6 8.79822 8.79822 6 12.25 6H35.75C39.2018 6 42 8.79822 42 12.25V24.0436C41.2196 23.544 40.3823 23.1255 39.5 22.7999V16.5H8.5V35.75C8.5 37.8211 10.1789 39.5 12.25 39.5H22.7999C23.1255 40.3823 23.544 41.2196 24.0436 42H12.25C8.79822 42 6 39.2018 6 35.75V12.25ZM12.25 8.5C10.1789 8.5 8.5 10.1789 8.5 12.25V14H39.5V12.25C39.5 10.1789 37.8211 8.5 35.75 8.5H12.25ZM28.8938 29.7824C29.235 30.8928 28.5615 32.0594 27.4292 32.3192L24.1691 33.067C24.058 33.6943 24 34.34 24 34.9993C24 35.5664 24.0429 36.1236 24.1257 36.6676L27.5896 37.5353C28.6866 37.8102 29.3377 38.9391 29.0262 40.0263L28.0285 43.5084C28.9453 44.2604 29.9858 44.8671 31.1148 45.2935L33.6335 42.6863C34.4193 41.873 35.7226 41.8724 36.5091 42.685L38.9934 45.2519C40.1288 44.8094 41.1726 44.1837 42.0884 43.4111L41.1066 40.2158C40.7654 39.1053 41.4389 37.9388 42.5712 37.679L45.8309 36.9313C45.942 36.304 46 35.6584 46 34.9993C46 34.4319 45.9571 33.8746 45.8742 33.3304L42.4108 32.4628C41.3139 32.188 40.6627 31.059 40.9742 29.9719L41.9717 26.4903C41.0549 25.7383 40.0144 25.1314 38.8853 24.7051L36.3669 27.3119C35.5811 28.1252 34.2779 28.1258 33.4914 27.3132L31.0071 24.7464C29.8717 25.1888 28.8279 25.8145 27.912 26.587L28.8938 29.7824ZM35 37.9993C33.3432 37.9993 32 36.6561 32 34.9993C32 33.3424 33.3432 31.9993 35 31.9993C36.6569 31.9993 38 33.3424 38 34.9993C38 36.6561 36.6569 37.9993 35 37.9993Z" fill="#212121"/>
</svg>

<svg xmlns="http://www.w3.org/2000/svg" width="48" height="48"><path d="M6 12.25A6.25 6.25 0 0 1 12.25 6h23.5A6.25 6.25 0 0 1 42 12.25v11.794c-.78-.5-1.618-.919-2.5-1.244v-6.3h-31v19.25a3.75 3.75 0 0 0 3.75 3.75H22.8c.325.882.744 1.72 1.244 2.5H12.25A6.25 6.25 0 0 1 6 35.75v-23.5Zm6.25-3.75a3.75 3.75 0 0 0-3.75 3.75V14h31v-1.75a3.75 3.75 0 0 0-3.75-3.75h-23.5Zm16.644 21.282a2 2 0 0 1-1.465 2.537l-3.26.748a11.073 11.073 0 0 0-.043 3.6l3.464.868a2 2 0 0 1 1.436 2.491l-.997 3.482a10.99 10.99 0 0 0 3.086 1.785l2.518-2.607a2 2 0 0 1 2.876-.001l2.484 2.567a10.99 10.99 0 0 0 3.095-1.84l-.981-3.196a2 2 0 0 1 1.464-2.537l3.26-.748a11.072 11.072 0 0 0 .043-3.6l-3.463-.868a2 2 0 0 1-1.437-2.491l.998-3.482a10.988 10.988 0 0 0-3.087-1.785l-2.518 2.607a2 2 0 0 1-2.876.001l-2.484-2.567a10.992 10.992 0 0 0-3.095 1.841l.982 3.195ZM35 38a3 3 0 1 1 0-6 3 3 0 0 1 0 6Z"/></svg>
